web/packages/design/src/ResourceIcon/assets/zoom.svg

<svg width="72" height="72" viewBox="0 0 72 72" fill="none" xmlns="http://www.w3.org/2000/svg">
<path d="M15.1014 43.9375H2.29073C1.44391 43.9375 0.640535 43.4928 0.249699 42.7336C-0.195417 41.8658 -0.0325695 40.8246 0.651387 40.1412L9.56459 31.2364H3.18096C1.4222 31.2364 0 29.8156 0 28.0584H11.801C12.6478 28.0584 13.4512 28.5031 13.842 29.2624C14.2872 30.1301 14.1243 31.1713 13.4404 31.8547L4.52716 40.7595H11.9204C13.6792 40.7595 15.1014 42.1804 15.1014 43.9375ZM65.8014 27.8198C63.9668 27.8198 62.3162 28.6116 61.1871 29.8806C60.0475 28.6116 58.3971 27.8198 56.5733 27.8198C53.1642 27.8198 50.3851 30.7266 50.3851 34.1215V43.9375C52.1438 43.9375 53.5659 42.5166 53.5659 40.7595V34.089C53.5659 32.4512 54.8362 31.0629 56.4646 30.9978C58.1801 30.9327 59.6022 32.3102 59.6022 34.0131V40.7595C59.6022 42.5166 61.0244 43.9375 62.7831 43.9375V34.089C62.7831 32.4512 64.0535 31.0629 65.6816 30.9978C67.3971 30.9327 68.8195 32.3102 68.8195 34.0131V40.7595C68.8195 42.5166 70.2418 43.9375 72 43.9375V34.1215C71.9892 30.7266 69.2101 27.8198 65.8014 27.8198ZM31.1473 35.9979C31.1473 40.5101 27.4778 44.1761 22.9615 44.1761C18.4452 44.1761 14.7757 40.5101 14.7757 35.9979C14.7757 31.4859 18.4561 27.8198 22.9615 27.8198C27.467 27.8198 31.1473 31.4859 31.1473 35.9979ZM27.9663 35.9979C27.9663 33.243 25.7191 30.9978 22.9615 30.9978C20.204 30.9978 17.9566 33.243 17.9566 35.9979C17.9566 38.753 20.204 40.9981 22.9615 40.9981C25.7191 40.9981 27.9663 38.753 27.9663 35.9979ZM48.7891 35.9979C48.7891 40.5101 45.1198 44.1761 40.6035 44.1761C36.0869 44.1761 32.4175 40.5101 32.4175 35.9979C32.4175 31.4859 36.0981 27.8198 40.6035 27.8198C45.1086 27.8198 48.7891 31.4859 48.7891 35.9979ZM45.6082 35.9979C45.6082 33.243 43.361 30.9978 40.6035 30.9978C37.8459 30.9978 35.5985 33.243 35.5985 35.9979C35.5985 38.753 37.8459 40.9981 40.6035 40.9981C43.361 40.9981 45.6082 38.753 45.6082 35.9979Z" fill="#0B5CFF"/>
</svg>

<svg xmlns="http://www.w3.org/2000/svg" width="72" height="72" fill="none" viewBox="0 0 72 72"><path fill="#0b5cff" d="M15.101 43.938H2.291c-.847 0-1.65-.445-2.041-1.204a2.22 2.22 0 0 1 .4-2.594l8.914-8.905H3.18A3.177 3.177 0 0 1 0 28.058h11.801c.847 0 1.65.445 2.041 1.204a2.22 2.22 0 0 1-.402 2.593L4.527 40.76h7.393a3.177 3.177 0 0 1 3.181 3.178m50.7-16.118a6.16 6.16 0 0 0-4.614 2.06 6.2 6.2 0 0 0-4.614-2.06c-3.409 0-6.188 2.907-6.188 6.301v9.816c1.759 0 3.18-1.42 3.18-3.177v-6.671c0-1.638 1.271-3.026 2.9-3.091a3.024 3.024 0 0 1 3.137 3.015v6.747a3.177 3.177 0 0 0 3.181 3.178v-9.849c0-1.638 1.27-3.026 2.899-3.091a3.024 3.024 0 0 1 3.138 3.015v6.747A3.177 3.177 0 0 0 72 43.938V34.12c-.01-3.394-2.79-6.301-6.199-6.301m-34.654 8.178c0 4.512-3.67 8.178-8.185 8.178-4.517 0-8.186-3.666-8.186-8.178s3.68-8.178 8.186-8.178c4.505 0 8.185 3.666 8.185 8.178m-3.18 0c0-2.755-2.248-5-5.005-5a5.01 5.01 0 0 0-5.005 5c0 2.755 2.247 5 5.005 5a5.01 5.01 0 0 0 5.004-5m20.822 0c0 4.512-3.67 8.178-8.186 8.178s-8.186-3.666-8.186-8.178 3.681-8.178 8.186-8.178c4.506 0 8.186 3.666 8.186 8.178m-3.18 0c0-2.755-2.248-5-5.006-5a5.01 5.01 0 0 0-5.004 5c0 2.755 2.247 5 5.005 5a5.01 5.01 0 0 0 5.004-5"/></svg>
